X:1
T:Title
%%score { 1 | 2 }
L:1/8
M:4/4
K:G
V:1 treble nm="Grand Piano"
V:2 treble 
V:1
 z4 z2[Q:1/4=100] D2 | G2 G>A B2 B>c | d>d d>e d2 B2 | [Ac]>[Ac] [Ac]>[GB] [FA]2 d2 | B6 B>B | %5
 [DFA]4 [EG^c]4 |[M:3/4] [DFd]6 |[M:1/4] (3DEF |[M:4/4] G2 B2 d>B [Fc]>[Fe] | d4 B2 B>[GB] | %10
 [Ac]2 [Ac]2 [Ac]>[FA] [GB]>[Ac] | B4 d2 (3DEF | G2 B2 d>B [Fc]>[Fe] | d4 B2 B2 | %14
 [Gd]3 [Fc] [FB]2 A2 |[M:3/4] G6 |] %16
V:2
 z4 z2 [G,B,]2 | [G,B,D]2 [G,B,D]>[G,CD] [G,DG]2 [G,DG]>[G,DA] | %2
 [G,B,G]>[G,B,G] [G,B,G]>[G,CG] [G,B,G]2 [G,DG]2 | [D,D]>[D,D] [D,D]>[D,D] [D,D]2[K:treble] [DF]2 | %4
 [G,DG]6 [G,DG]>[G,DG] | D,4 A,4 |[M:3/4] D,6 |[M:1/4] (3D,E,F, | %8
[M:4/4] G,2[K:treble] [G,DG]2 [G,B,G]>[G,G][K:bass] [D,A,]>[D,C] | %9
 [G,B,G]4 [G,DG]2 [G,DG]>[K:bass][F,D] | [D,D]2 [D,D]2 [D,D]>[D,D] [D,D]>[D,D] | %11
 [G,DG]4 [G,B,G]2[K:bass] (3D,E,F, | G,2[K:treble] [G,DG]2 [G,B,G]>[G,G][K:bass] [D,A,]>[D,C] | %13
 [G,B,G]4 [G,DG]2 [G,DG]2 | [D,B,]3 [D,A,] [D,D]2 [D,CD]2 |[M:3/4] [G,B,D]6 |] %16

